X:1
T:You black bright stars - Morley
T:#
%%score [ 1 2 { 3 | 4 } 5 ]
L:1/8
Q:1/4=120
M:4/4
K:C
V:1 treble nm="Soprano" snm="S"
V:2 treble nm="Alto" snm="A"
V:3 treble-8 nm="Tenor I" snm="T"
V:4 treble-8 
V:5 bass nm="Bass" snm="B"
V:1
|:"^You black bright stars" d8 |[M:3/4] e4 d2 x4 | e4 e2 x2 |[M:4/4] ^f6 =f2 x6 | %4
w: You|black bright|stars, that|shine while|
w: In|dark- er|nights the|stars seem|
[M:3/2] ef (g4 ^f2)"^Thomas Morley\n(1557-1603)" g4 |[M:3/2] z2 f2 e2 d2 (d4- | %6
w: day- light last\- * eth,|while day- light last\-|
w: still the light\- * er,|seem still the light\-|
[M:4/4] d2 ^cB !courtesy!^c4) x4 | d4 z2 ^f2 x4 | g4 z2 d2 | d2 d2 =f2 f2 |[M:4/4] c3 d e4- | %11
w: |eth, Ah,|why haste|you a- way when|night- time hast\-|
w: |er; On|me shine|then a- nights with|your beams bright\-|
 e4 d4 | z2 d2 d2 e2 | (^f2 g4 f2) | g8 :| e8 |[M:3/4] e4 g2 x6 |[M:4/4] ^f6 g2 |[M:3/4] a4 a2 | %19
w: * eth,|when night- time|hast\- * *|eth?|Beams|that are|cause my|heart hath|
w: * er,|with your beams|bright\- * *|er.|||||
 g4 a2 x2 |[M:4/4] ^f4 f4 |[M:4/4] z4 z2 e2 | f4 g4 | a4 d2 (g2- | g2 ^fe) f4 | g2 g2 e4 | g4 g4 | %27
w: so as-|pir- ed,|Fire|mounts a-|loft and they|* * * my|heart have fir-|ed, and|
w: ||||||||
 f6 e2 | e4 d2 (d2- | d2 c2 A4) | B4 z4 | z8 | z8 | z4 z2 d2 | e4 ^f4 | g4 e4 | g4 g4 | =f6 e2 | %38
w: they my|heart have fir\-||ed,|||Fire|mounts a-|loft and|they my|heart, my|
w: |||||||||||
 e4[Q:1/4=118] d2[Q:1/4=114] (d2- |[Q:1/4=111] d2[Q:1/4=107] c2[Q:1/4=103] A4) |[Q:1/4=100] B8 |] %41
w: heart have fir\-||ed.|
w: |||
V:2
|: G8 |[M:3/4] G4 G2 x4 | G4 G2 x2 |[M:4/4] A6 A2 x6 |[M:3/2] A2 B2 c4 B4 |[M:3/2] z2 A2 A4 A4 | %6
w: You|black bright|stars, that|shine while|day- light last- eth,|while day- light|
w: In|dark- er|nights the|stars seem|still the light- er,|seem still the|
[M:4/4] A8 x4 | A8 x4 | z2 B2 d4 | z2 A2 A2 A2 |[M:4/4] c8 | z2 A2 B2 c2 | (d6 cB | A2 G2 A4) | %14
w: last-|eth,|Ah, why|haste you a-|way|when night- time|hast\- * *||
w: light-|er;|On me|shine then a-|nights|with your beams|bright\- * *||
 G8 :| G8 |[M:3/4] G4 B2 x6 |[M:4/4] A6 B2 |[M:3/4] c4 A2 | B3 c (d2 x2 |[M:4/4] A4) A2 z2 | %21
w: eth?|Beams|that are|cause my|heart hath|so as- pir\-|* ed,|
w: er.|||||||
[M:4/4] z8 | z8 | z8 | z4 z2 A2 | B4 ^c4 | d4 z2 G2 | B2 B2 A4- | A2 G2 (G4- | G4 ^F4) | G4 G4 | %31
w: |||Fire|mounts a-|loft and|they my heart|* have fir\-||ed, my|
w: ||||||||||
 G4 C4 | (D4 A4) | A4 z4 | z4 z2 A2 | B4 ^c4 | d4 z2 G2 | B2 B2 A4- | A2 G2 (G4- | G4 ^F4) | G8 |] %41
w: heart have|fir\- *|ed.|Fire|mounts a-|loft and|they my heart|* have fir\-||ed.|
w: ||||||||||
V:3
|: B8 |[M:4/4] c4 d2 c4 | G2 d6 |[M:4/4] d2 G2 d2 c4 d4 |[M:3/2] x12 | %5
w: You|black bright stars,|that shine|while day- light last- eth,||
w: In|dark- er nights|the stars|seem still the light- er,||
[M:3/2][K:treble-8] z2 d2 A4 A4 |[M:3/2] A8 A2 A2 | d4 z2 d2 d2 d2 | f4 F2 F2- | x8 | %10
w: while day- light|last- eth, Ah,|why haste you a-|way when night\-||
w: seem still the|light- er; On|me shine then a-|nights with your||
[M:4/4][K:treble-8] FG A6 | G4 z4 | z2 G2 G2 G2 | d8 | d8 :| c8 |[M:4/4] c4 d2 d6 | %17
w: * time hast-|eth,|when night- time|hast-|eth?|Beams|that are cause|
w: * beams bright-|er,|with your beams|bright-|er.|||
[M:4/4] d2 f4 x2 |[M:3/4] f2 d4 | d2 d4 d2 |[M:4/4] A2 x6 |[M:4/4][K:treble-8] B4 c4 | d4 G2 c2- | %23
w: my heart|hath so|as- pir- ed,|Fire|mounts a-|loft and they|
w: ||||||
 c2 A2 B2 G2 | A4 d4- | d4 z2 A2 | d4 e4 | d6 c2 | c3 c B2 B2 | A8 | G8 | z4 z2 A2 | B4 c4 | %33
w: * my heart have|fir- ed,|* Fire|mounts a-|loft and|they my heart have|fir-|ed,|Fire|mounts a-|
w: ||||||||||
 d3 d B2 G2 | c2 c2 d4 | d4 z2 A2 | d4 e4 | d6 c2 | c3 c B2 B2 | A8 | G8 |] %41
w: loft and they my|heart have fir-|ed, Fire|mounts a-|loft and|they my heart have|fir-|ed.|
w: ||||||||
V:4
|: G8 |[M:4/4] G4 G2 x4 | G4 c2 x2 |[M:4/4] A6 A2 x6 |[M:3/2] c2 G2 A4 D4 | %5
w: You|black bright|stars, that|shine while|day- light last- eth,|
w: In|dark- er|nights the|stars seem|still the light- er,|
[M:3/2][K:treble-8] z2 D2 E4 F4 |[M:3/2] E8 x4 | ^F4 z2 d2 x4 | B2 G2 B2 B2 | A4 z2 A2 | %10
w: while day- light|last-|eth, Ah,|why haste you a-|way, Ah,|
w: seem still the|light-|er; On|me shine then a-|nights, on|
[M:4/4][K:treble-8] A2 A2 c4 | c4 B2 G2 | B3 c d4- | d2 B2 A4 | B8 :| G8 |[M:4/4] G4 G2 x6 | %17
w: why haste you|a- way when|night, when night\-|* time hast-|eth?|Beams|that are|
w: me shine then|a- nights with|your, with your|* beams bright-|er.|||
[M:4/4] A6 G2 |[M:3/4] c4 c2 | B2 G4 x2 |[M:4/4] A2 A2 d4 |[M:4/4][K:treble-8] d2 d2 G4 | %22
w: cause my|heart hath|so as-|pir- ed, hath|so as- pir-|
w: |||||
 A2 D2 E4 | ^F4 G2 E2 | D6 D2 | G2 G2 A4 | G4 z2 E2 | F2 G2 A4 | E2 G4 G2 | A2 A2 D4 | D4 z2 D2 | %31
w: ed, Fire mounts|a- loft and|they my|heart have fir-|ed, Fire|mounts a- loft|and they my|heart have fir-|ed, Fire|
w: |||||||||
 E4 ^F4 | G4 E4 | ^F2 F2 G2 D2 | A4 A4 | G4 A4 | G4 z2 E2 | F2 G2 A4 | E2 G4 G2 | A2 A2 D4 | D8 |] %41
w: mounts a-|loft and|they my heart have|fir- ed,|have fir-|ed, Fire|mounts a- loft|and they my|heart have fir-|ed.|
w: ||||||||||
V:5
|: G,,8 |[M:3/4] C,4 B,,2 x4 | C,4 E,2 x2 |[M:4/4] D,6 D,2 x6 |[M:3/2] C,2 B,,2 A,,4 G,,4 | %5
w: You|black bright|stars, that|shine while|day- light last- eth,|
w: In|dark- er|nights the|stars seem|still the light- er,|
[M:3/2] z2 D,2 ^C,4 D,4 |[M:4/4] A,,8 x4 | D,4 z2 D,2 x4 | G,4 z2 G,,2 | D,8 |[M:4/4] z4 z2 A,,2 | %11
w: while day- light|last-|eth, Ah,|why, Ah,|why|haste|
w: seem still the|light-|er; On|me, on|me|shine|
 E,2 ^F,2 G,4- | G,2 G,,2 B,,2 C,2 | D,8 | G,,8 :| C,8 |[M:3/4] C,4 G,,2 x6 |[M:4/4] D,6 G,2 | %18
w: you a- way|* when night- time|hast-|eth?|Beams|that are|cause my|
w: then a- nights|* with your beams|bright-|er.||||
[M:3/4] F,4 F,2 | G,4 G,,2 x2 |[M:4/4] D,4 D,2 D,2 |[M:4/4] (G,4 E,4) | D,4 z4 | z8 | z8 | %25
w: heart hath|so as-|pir- ed, as-|pir\- *|ed,|||
w: |||||||
 z4 z2 A,,2 | B,,4 C,4 | D,6 A,,2 | C,3 C, G,,2 G,,2 | D,8 | G,,6 G,,2 | C,4 A,,4 | G,,4 A,,4 | %33
w: Fire|mounts a-|loft and|they my heart have|fir-|ed, Fire|mounts a-|loft and|
w: ||||||||
 D,3 D, G,,2 B,,2 | A,,4 D,4 | z4 z2 A,,2 | B,,4 C,4 | D,6 A,,2 | C,3 C, G,,2 G,,2 | D,8 | G,,8 |] %41
w: they my heart have|fir- ed,|Fire|mounts a-|loft and|they my heart have|fir-|ed.|
w: ||||||||

